img/rocket.svg

<svg viewBox="3.897 3.897 92.057 91.877" xmlns="http://www.w3.org/2000/svg" xmlns:bx="https://boxy-svg.com"><defs><radialGradient id="a" gradientUnits="userSpaceOnUse" cx="12.752" cy="84.96" r="17.457" spreadMethod="reflect" gradientTransform="matrix(1.1691 -.24728 .16247 .76817 -15.422 22.887)"><stop offset="0" stop-color="#fff700"/><stop offset="1" stop-color="#ea471a"/></radialGradient></defs><path d="M32.904 59.602a48.92 48.92 0 0 0 7.706 7.706l.461.369c6.938-3.025 13.207-6.243 18.806-9.65a63.555 63.555 0 0 1-17.694-17.693c-3.407 5.6-6.625 11.869-9.649 18.807.124.152.246.305.37.461z" fill="#1b75b5"/><path d="M92.161 22.421c1.618-4.565 2.563-9.32 2.835-14.27a2.787 2.787 0 0 0-2.935-2.935c-4.95.272-9.706 1.216-14.271 2.834a70.036 70.036 0 0 1 14.371 14.371z" fill="#064775"/><path d="M44.199 66.274c4.535-2.097 8.77-4.282 12.703-6.559l1.665 11.653c-7.881 6.565-15.761 13.134-23.642 19.7l-1.97-1.97c4.597-5.911 9.194-11.821 13.792-17.73-.85-1.697-1.7-3.396-2.548-5.094zm-3.404-23.563c-2.276 3.934-4.461 8.167-6.559 12.702l-5.094-2.546c-5.911 4.597-11.821 9.192-17.731 13.79l-1.97-1.97 19.701-23.641 11.653 1.665z" bx:origin="0.5 0.5" fill="#064775"/><path d="M76.539 8.513C63.774 13.422 52.537 23.68 42.828 39.288l.285.427a62.4 62.4 0 0 0 17.384 17.383l.428.285C76.531 47.674 86.79 36.437 91.7 23.671A68.963 68.963 0 0 0 76.539 8.513zm.768 26.132a8.301 8.301 0 1 1-11.74-11.74 8.301 8.301 0 0 1 11.74 11.74z" fill="#1b75b5"/><path d="M32.034 60.297l-7.88 3.94c.393.524.795 1.038 1.201 1.544-5.211 1.035-8.806 3.614-12.52 10.381 0 0 .897-.075 1.566-.332-6.088 8.331-2.407 7.474-9.4 18.958 6.603-4.107 11.65-2.946 17.271-9.437-1.047 1.853-.204 1.059-1.848 3.206 4.446-1.802 3.938-2.522 6.461-4.672-.847 1.666-.524 1.371-1.194 2.304 0 0 7.173-3.12 9.028-11.107.415.328.829.656 1.255.976 1.314-2.626 2.627-5.253 3.94-7.881a50.022 50.022 0 0 1-7.88-7.88zm-5.659 19.887c.595-.538.804-.712 1.313-1.747-1.515 1.336-2.276 2.505-4.946 3.624.988-1.334 1.546-1.563 2.177-2.712-3.378 4.028-6.412 3.308-10.378 5.859 4.202-7.132 2.641-7.553 6.301-12.726-.402.16-1.746 1.445-1.746 1.445 2.183-4.109 4.448-5.991 7.478-6.677a57.465 57.465 0 0 0 5.783 5.862c-1.184 4.861-5.982 7.072-5.982 7.072z" fill="url(#a)"/><path d="M24.889 64.389l7.043-3.49 7.36 7.391-3.46 7.011s-4.292-3.353-6.296-5.363c-1.623-1.628-4.647-5.549-4.647-5.549z" stroke="#1b75b5" fill="#1b75b5"/><rect x="-26.513" y="24.676" width="3.597" height="37.176" rx=".07" ry=".074" transform="rotate(45.362 -19.895 123.896) skewX(1.057)" fill="#064775"/><ellipse cx="71.432" cy="28.852" rx="8.468" ry="8.394" fill="#064775"/><ellipse cx="71.43" cy="28.778" rx="7.12" ry="6.82" fill="#d8d8d8"/><ellipse transform="matrix(.84173 -.5399 0 1.18803 2.104 38.24)" cx="78.23" cy="24.66" rx="2.28" ry="1.184" fill="#fff"/><path d="M76.513 8.552l1.454-.582s5.497 4.539 7.768 6.83c2.479 2.501 6.524 7.461 6.524 7.461l-.582 1.454s-4.606-5.816-7.387-8.62c-2.246-2.264-7.777-6.543-7.777-6.543z" bx:origin="0.5 0.5" stroke="rgba(0,0,0,0)" fill="#f74"/><path d="M42.159 40.391l.675-1.072s5.763 7.615 8.364 10.215c2.84 2.838 9.744 7.837 9.744 7.837l-1.077.683s-2.051-1.243-4.256-3.027c-2.19-1.772-4.454-3.911-6.041-5.496-1.341-1.339-2.576-2.783-4.469-5.108-1.737-2.134-2.94-4.032-2.94-4.032z" bx:origin="0.5 0.5" stroke="rgba(0,0,0,0)" fill="#f74" stroke-width="1.14"/></svg>

<?xml version="1.0" encoding="utf-8"?>
<svg x="0px" y="0px" viewBox="3.897 3.897 92.057 91.877" xmlns="http://www.w3.org/2000/svg" xmlns:bx="https://boxy-svg.com">
  <defs>
    <pattern id="pattern-1" x="0" y="0" width="20" height="20" patternUnits="userSpaceOnUse" viewBox="0 0 100 100">
      <path d="M 0 0 L 50 0 L 50 100 L 0 100 Z" style="fill: black;"/>
    </pattern>
    <radialGradient id="gradient-1" gradientUnits="userSpaceOnUse" cx="12.752" cy="84.96" r="17.457" spreadMethod="reflect" gradientTransform="matrix(1.1691, -0.247276, 0.162474, 0.768172, -15.421893, 22.88705)">
      <stop offset="0" style="stop-color: rgb(255, 247, 0);"/>
      <stop offset="1" style="stop-color: rgb(234, 71, 26);"/>
    </radialGradient>
  </defs>
  <path d="M32.904,59.602c2.297,2.871,4.834,5.408,7.706,7.706c0.154,0.123,0.308,0.246,0.461,0.369  c6.938-3.025,13.207-6.243,18.806-9.65c-7.012-4.667-13.027-10.681-17.694-17.693c-3.407,5.6-6.625,11.869-9.649,18.807  C32.658,59.293,32.78,59.446,32.904,59.602z" style="fill: rgb(27, 117, 181);"/>
  <path d="M92.161,22.421c1.618-4.565,2.563-9.32,2.835-14.27c0.091-1.657-1.278-3.025-2.935-2.935  c-4.95,0.272-9.706,1.216-14.271,2.834C83.255,12.117,88.095,16.958,92.161,22.421z" style="fill: rgb(6, 71, 117);"/>
  <path d="M 44.199 66.274 C 48.734 64.177 52.969 61.992 56.902 59.715 C 57.457 63.6 58.012 67.484 58.567 71.368 C 50.686 77.933 42.806 84.502 34.925 91.068 C 34.268 90.412 33.612 89.755 32.955 89.098 C 37.552 83.187 42.149 77.277 46.747 71.368 C 45.897 69.671 45.047 67.972 44.199 66.274 Z" style="fill: rgb(6, 71, 117);" bx:origin="0.5 0.5"/>
  <path d="M 40.795 42.711 C 38.519 46.645 36.334 50.878 34.236 55.413 C 32.538 54.564 30.84 53.716 29.142 52.867 C 23.231 57.464 17.321 62.059 11.411 66.657 C 10.754 66.001 10.098 65.344 9.441 64.687 C 16.008 56.807 22.575 48.926 29.142 41.046 C 33.027 41.601 36.91 42.156 40.795 42.711 Z" style="fill: rgb(6, 71, 117);" bx:origin="0.5 0.5"/>
  <path d="M76.539,8.513C63.774,13.422,52.537,23.68,42.828,39.288c0.095,0.143,0.19,0.285,0.285,0.427  c4.585,6.89,10.494,12.799,17.384,17.383c0.143,0.095,0.285,0.19,0.428,0.285c15.606-9.709,25.865-20.946,30.775-33.712  C87.467,17.859,82.353,12.745,76.539,8.513z M77.307,34.645c-3.243,3.242-8.499,3.242-11.74,0c-3.242-3.242-3.242-8.498,0-11.74  c3.241-3.241,8.497-3.241,11.74,0C80.547,26.147,80.547,31.403,77.307,34.645z" style="fill: rgb(27, 117, 181);"/>
  <path d="M32.034,60.297c-2.627,1.313-5.254,2.627-7.88,3.94c0.393,0.524,0.795,1.038,1.201,1.544  c-5.211,1.035-8.806,3.614-12.52,10.381c0,0,0.897-0.075,1.566-0.332c-6.088,8.331-2.407,7.474-9.4,18.958  c6.603-4.107,11.65-2.946,17.271-9.437c-1.047,1.853-0.204,1.059-1.848,3.206c4.446-1.802,3.938-2.522,6.461-4.672  c-0.847,1.666-0.524,1.371-1.194,2.304c0,0,7.173-3.12,9.028-11.107c0.415,0.328,0.829,0.656,1.255,0.976  c1.314-2.626,2.627-5.253,3.94-7.881C36.978,65.828,34.382,63.232,32.034,60.297z M26.375,80.184  c0.595-0.538,0.804-0.712,1.313-1.747c-1.515,1.336-2.276,2.505-4.946,3.624c0.988-1.334,1.546-1.563,2.177-2.712  c-3.378,4.028-6.412,3.308-10.378,5.859c4.202-7.132,2.641-7.553,6.301-12.726c-0.402,0.16-1.746,1.445-1.746,1.445  c2.183-4.109,4.448-5.991,7.478-6.677c1.794,2.099,3.713,4.044,5.783,5.862C31.173,77.973,26.375,80.184,26.375,80.184z" style="fill: url(#gradient-1); stroke: rgb(186, 218, 85); stroke-width: 1; stroke-opacity: 0; fill-rule: nonzero; fill-opacity: 1;"/>
  <path d="M 24.889 64.389 L 31.932 60.899 L 39.292 68.29 L 35.832 75.301 C 35.832 75.301 31.54 71.948 29.536 69.938 C 27.913 68.31 24.889 64.389 24.889 64.389 Z" style="stroke: rgb(27, 117, 181); fill: rgb(27, 117, 181);"/>
  <rect x="-26.513" y="24.676" width="3.597" height="37.176" rx="0.07" ry="0.074" style="fill: rgb(6, 71, 117); stroke-width: 0.936;" transform="matrix(0.702623, 0.711563, -0.698597, 0.715753, 82.243521, 51.000531)"/>
  <ellipse style="fill: rgb(6, 71, 117); stroke-width: 1;" cx="71.432" cy="28.852" rx="8.468" ry="8.394"/>
  <ellipse style="fill: rgb(216, 216, 216); stroke-width: 1.21805;" cx="71.43" cy="28.778" rx="7.12" ry="6.82"/>
  <ellipse style="fill: rgb(255, 255, 255); stroke-width: 0.62846;" transform="matrix(0.84173, -0.539901, 0, 1.18803, 2.1039, 38.240058)" cx="78.23" cy="24.66" rx="2.28" ry="1.184"/>
  <path d="M 76.513 8.552 L 77.967 7.97 C 77.967 7.97 83.464 12.509 85.735 14.8 C 88.214 17.301 92.259 22.261 92.259 22.261 L 91.677 23.715 C 91.677 23.715 87.071 17.899 84.29 15.095 C 82.044 12.831 76.513 8.552 76.513 8.552 Z" style="stroke: rgba(0, 0, 0, 0); fill: rgb(255, 119, 68);" bx:origin="0.5 0.5"/>
  <path d="M 42.159 40.391 L 42.834 39.319 C 42.834 39.319 48.597 46.934 51.198 49.534 C 54.038 52.372 60.942 57.371 60.942 57.371 L 59.865 58.054 C 59.865 58.054 57.814 56.811 55.609 55.027 C 53.419 53.255 51.155 51.116 49.568 49.531 C 48.227 48.192 46.992 46.748 45.099 44.423 C 43.362 42.289 42.159 40.391 42.159 40.391 Z" style="stroke: rgba(0, 0, 0, 0); fill: rgb(255, 119, 68); stroke-width: 1.14;" bx:origin="0.5 0.5"/>
</svg>
